actions/24/inbox.svg

<?xml version="1.0" encoding="UTF-8" standalone="no"?>
<svg
   width="24"
   height="24"
   version="1.1"
   id="svg9"
   sodipodi:docname="inbox.svg"
   inkscape:version="1.1.2 (0a00cf5339, 2022-02-04)"
   xmlns:inkscape="http://www.inkscape.org/namespaces/inkscape"
   xmlns:sodipodi="http://sodipodi.sourceforge.net/DTD/sodipodi-0.dtd"
   xmlns="http://www.w3.org/2000/svg"
   xmlns:svg="http://www.w3.org/2000/svg">
  <sodipodi:namedview
     id="namedview11"
     pagecolor="#000000"
     bordercolor="#666666"
     borderopacity="1.0"
     inkscape:pageshadow="2"
     inkscape:pageopacity="0"
     inkscape:pagecheckerboard="0"
     showgrid="false"
     inkscape:zoom="28.416667"
     inkscape:cx="11.982405"
     inkscape:cy="11.964809"
     inkscape:window-width="1596"
     inkscape:window-height="967"
     inkscape:window-x="0"
     inkscape:window-y="29"
     inkscape:window-maximized="1"
     inkscape:current-layer="g7" />
  <defs
     id="defs3">
    <style
       id="current-color-scheme"
       type="text/css">
   .ColorScheme-Text { color:#eeeeec; } .ColorScheme-Highlight { color:#367bf0; } .ColorScheme-NeutralText { color:#ffcc44; } .ColorScheme-PositiveText { color:#3db47e; } .ColorScheme-NegativeText { color:#dd4747; }
  </style>
  </defs>
  <g
     transform="translate(4,4)"
     id="g7">
    <path
       style="fill:currentColor"
       class="ColorScheme-Text"
       d="M 2,1 C 1,1 1,2 1,2 v 12 c 0,0 0,1 1,1 h 12 c 1,0 1,-1 1,-1 V 2 c 0,0 0,-1 -1,-1 h -3 v 2 h 2 v 7 h -3 c 0,2 -2,2 -2,2 0,0 -2,0 -2,-2 H 3 V 3 H 5 V 1 Z M 6,1 V 5 H 4.9809656 l -0.370385,0.7632257 v 0 l 2.8117161,3.5146452 1.1749004,-0.024367 v 0 L 11.522428,5.5969646 v 0 L 11.173539,5 H 10 V 1 Z"
       id="path5"
       sodipodi:nodetypes="sccssccscccccccccccscccccccccccccc" />
  </g>
</svg>

<svg xmlns="http://www.w3.org/2000/svg" width="24" height="24" version="1.1">
 <defs>
  <style id="current-color-scheme" type="text/css">
   .ColorScheme-Text { color:#eeeeec; } .ColorScheme-Highlight { color:#367bf0; } .ColorScheme-NeutralText { color:#ffcc44; } .ColorScheme-PositiveText { color:#3db47e; } .ColorScheme-NegativeText { color:#dd4747; }
  </style>
 </defs>
 <g transform="translate(4,4)">
  <path style="fill:currentColor" class="ColorScheme-Text" d="M 2,1 C 1,1 1,2 1,2 V 14 C 1,14 1,15 2,15 H 14 C 15,15 15,14 15,14 V 2 C 15,2 15,1 14,1 H 11 V 3 H 13 V 10 H 10 C 10,12 8,12 8,12 8,12 6,12 6,10 H 3 V 3 H 5 V 1 Z M 6,1 V 5 H 4 L 8,10 12,5 H 10 V 1 Z"/>
 </g>
</svg>
